; ===================================================
;  Sand Plotter Pattern: Rectangle + Lollipop Spiral
;  Generated by generate_gcode.py
;  Bed: 280.0x380.0mm
; ===================================================

G21        ; millimeters
G90        ; absolute positioning
G92 X0 Y0  ; set current position as origin
F1200

; --- Go to start corner ---
G0 F4000 X12.000 Y12.000

; =====================================================
; PHASE 1: Rectangle border
; =====================================================
G1 F1200 X12.000 Y12.000  ; bottom-left
G1 X268.000 Y12.000               ; → bottom-right
G1 X268.000 Y368.000               ; ↑ top-right
G1 X12.000 Y368.000               ; ← top-left
G1 X12.000 Y12.000               ; ↓ close rectangle

; =====================================================
; PHASE 2: Stick — travel from rectangle to spiral
; =====================================================
G0 F4000 X258.000 Y22.000
G1 F1200   X62.600 Y197.600

; =====================================================
; PHASE 3: Inward Archimedean spiral (lollipop head)
; =====================================================
G1 X62.600 Y197.600
G1 X62.813 Y194.585
G1 X63.191 Y191.593
G1 X63.731 Y188.634
G1 X64.432 Y185.716
G1 X65.291 Y182.847
G1 X66.303 Y180.037
G1 X67.466 Y177.294
G1 X68.776 Y174.625
G1 X70.226 Y172.038
G1 X71.813 Y169.542
G1 X73.531 Y167.142
G1 X75.374 Y164.846
G1 X77.336 Y162.661
G1 X79.410 Y160.591
G1 X81.590 Y158.644
G1 X83.868 Y156.824
G1 X86.236 Y155.137
G1 X88.688 Y153.586
G1 X91.216 Y152.177
G1 X93.811 Y150.911
G1 X96.465 Y149.793
G1 X99.170 Y148.826
G1 X101.917 Y148.011
G1 X104.698 Y147.350
G1 X107.504 Y146.844
G1 X110.327 Y146.495
G1 X113.157 Y146.302
G1 X115.987 Y146.265
G1 X118.807 Y146.384
G1 X121.609 Y146.658
G1 X124.385 Y147.084
G1 X127.126 Y147.661
G1 X129.825 Y148.386
G1 X132.473 Y149.256
G1 X135.062 Y150.268
G1 X137.584 Y151.419
G1 X140.034 Y152.703
G1 X142.403 Y154.116
G1 X144.684 Y155.654
G1 X146.872 Y157.311
G1 X148.959 Y159.081
G1 X150.941 Y160.959
G1 X152.811 Y162.937
G1 X154.565 Y165.011
G1 X156.198 Y167.172
G1 X157.706 Y169.413
G1 X159.084 Y171.728
G1 X160.329 Y174.110
G1 X161.438 Y176.549
G1 X162.408 Y179.040
G1 X163.238 Y181.573
G1 X163.925 Y184.141
G1 X164.467 Y186.737
G1 X164.866 Y189.351
G1 X165.118 Y191.976
G1 X165.226 Y194.604
G1 X165.189 Y197.226
G1 X165.007 Y199.836
G1 X164.684 Y202.424
G1 X164.219 Y204.984
G1 X163.616 Y207.507
G1 X162.876 Y209.986
G1 X162.004 Y212.414
G1 X161.002 Y214.784
G1 X159.874 Y217.089
G1 X158.624 Y219.321
G1 X157.257 Y221.476
G1 X155.778 Y223.546
G1 X154.191 Y225.526
G1 X152.503 Y227.410
G1 X150.718 Y229.193
G1 X148.843 Y230.870
G1 X146.884 Y232.437
G1 X144.847 Y233.890
G1 X142.740 Y235.224
G1 X140.568 Y236.437
G1 X138.339 Y237.525
G1 X136.061 Y238.486
G1 X133.739 Y239.317
G1 X131.382 Y240.017
G1 X128.997 Y240.585
G1 X126.592 Y241.019
G1 X124.173 Y241.319
G1 X121.748 Y241.484
G1 X119.325 Y241.516
G1 X116.912 Y241.415
G1 X114.514 Y241.181
G1 X112.140 Y240.817
G1 X109.797 Y240.323
G1 X107.492 Y239.704
G1 X105.231 Y238.960
G1 X103.021 Y238.096
G1 X100.868 Y237.113
G1 X98.779 Y236.018
G1 X96.760 Y234.812
G1 X94.817 Y233.501
G1 X92.954 Y232.089
G1 X91.177 Y230.581
G1 X89.492 Y228.982
G1 X87.902 Y227.298
G1 X86.411 Y225.535
G1 X85.025 Y223.698
G1 X83.746 Y221.793
G1 X82.577 Y219.826
G1 X81.522 Y217.804
G1 X80.583 Y215.734
G1 X79.762 Y213.622
G1 X79.062 Y211.475
G1 X78.482 Y209.299
G1 X78.025 Y207.101
G1 X77.690 Y204.889
G1 X77.479 Y202.668
G1 X77.391 Y200.447
G1 X77.425 Y198.231
G1 X77.581 Y196.028
G1 X77.857 Y193.843
G1 X78.252 Y191.684
G1 X78.764 Y189.557
G1 X79.390 Y187.469
G1 X80.128 Y185.425
G1 X80.975 Y183.431
G1 X81.928 Y181.493
G1 X82.982 Y179.617
G1 X84.134 Y177.808
G1 X85.381 Y176.072
G1 X86.716 Y174.412
G1 X88.137 Y172.833
G1 X89.637 Y171.341
G1 X91.212 Y169.938
G1 X92.856 Y168.629
G1 X94.564 Y167.416
G1 X96.331 Y166.303
G1 X98.150 Y165.293
G1 X100.015 Y164.388
G1 X101.921 Y163.590
G1 X103.862 Y162.901
G1 X105.830 Y162.322
G1 X107.821 Y161.854
G1 X109.827 Y161.497
G1 X111.843 Y161.253
G1 X113.862 Y161.121
G1 X115.879 Y161.101
G1 X117.886 Y161.191
G1 X119.878 Y161.392
G1 X121.849 Y161.701
G1 X123.793 Y162.116
G1 X125.704 Y162.637
G1 X127.577 Y163.260
G1 X129.406 Y163.983
G1 X131.185 Y164.802
G1 X132.911 Y165.716
G1 X134.577 Y166.719
G1 X136.179 Y167.809
G1 X137.714 Y168.981
G1 X139.175 Y170.232
G1 X140.561 Y171.556
G1 X141.866 Y172.950
G1 X143.088 Y174.408
G1 X144.223 Y175.926
G1 X145.268 Y177.498
G1 X146.222 Y179.119
G1 X147.081 Y180.784
G1 X147.845 Y182.488
G1 X148.510 Y184.224
G1 X149.076 Y185.988
G1 X149.543 Y187.773
G1 X149.908 Y189.575
G1 X150.173 Y191.386
G1 X150.336 Y193.203
G1 X150.399 Y195.019
G1 X150.361 Y196.828
G1 X150.224 Y198.625
G1 X149.989 Y200.405
G1 X149.657 Y202.162
G1 X149.230 Y203.892
G1 X148.711 Y205.588
G1 X148.101 Y207.246
G1 X147.403 Y208.862
G1 X146.620 Y210.430
G1 X145.756 Y211.946
G1 X144.813 Y213.406
G1 X143.794 Y214.806
G1 X142.705 Y216.143
G1 X141.548 Y217.411
G1 X140.327 Y218.609
G1 X139.048 Y219.733
G1 X137.714 Y220.780
G1 X136.330 Y221.747
G1 X134.901 Y222.633
G1 X133.432 Y223.435
G1 X131.926 Y224.152
G1 X130.390 Y224.781
G1 X128.829 Y225.322
G1 X127.246 Y225.774
G1 X125.648 Y226.137
G1 X124.040 Y226.409
G1 X122.425 Y226.591
G1 X120.811 Y226.683
G1 X119.201 Y226.686
G1 X117.600 Y226.600
G1 X116.014 Y226.426
G1 X114.446 Y226.166
G1 X112.903 Y225.822
G1 X111.387 Y225.394
G1 X109.905 Y224.886
G1 X108.459 Y224.299
G1 X107.055 Y223.635
G1 X105.695 Y222.899
G1 X104.385 Y222.092
G1 X103.127 Y221.218
G1 X101.925 Y220.280
G1 X100.782 Y219.282
G1 X99.701 Y218.227
G1 X98.685 Y217.119
G1 X97.737 Y215.962
G1 X96.858 Y214.759
G1 X96.051 Y213.517
G1 X95.317 Y212.237
G1 X94.659 Y210.925
G1 X94.077 Y209.585
G1 X93.573 Y208.222
G1 X93.147 Y206.840
G1 X92.801 Y205.443
G1 X92.533 Y204.036
G1 X92.345 Y202.624
G1 X92.236 Y201.210
G1 X92.205 Y199.799
G1 X92.253 Y198.397
G1 X92.377 Y197.006
G1 X92.577 Y195.631
G1 X92.852 Y194.276
G1 X93.200 Y192.945
G1 X93.619 Y191.643
G1 X94.107 Y190.372
G1 X94.661 Y189.137
G1 X95.280 Y187.941
G1 X95.961 Y186.788
G1 X96.701 Y185.679
G1 X97.497 Y184.619
G1 X98.345 Y183.611
G1 X99.244 Y182.656
G1 X100.189 Y181.757
G1 X101.177 Y180.917
G1 X102.205 Y180.137
G1 X103.268 Y179.420
G1 X104.363 Y178.766
G1 X105.487 Y178.178
G1 X106.635 Y177.655
G1 X107.804 Y177.200
G1 X108.990 Y176.813
G1 X110.188 Y176.494
G1 X111.395 Y176.243
G1 X112.608 Y176.061
G1 X113.821 Y175.947
G1 X115.032 Y175.901
G1 X116.236 Y175.923
G1 X117.430 Y176.011
G1 X118.611 Y176.164
G1 X119.774 Y176.381
G1 X120.916 Y176.661
G1 X122.035 Y177.002
G1 X123.126 Y177.402
G1 X124.186 Y177.860
G1 X125.213 Y178.372
G1 X126.203 Y178.938
G1 X127.155 Y179.554
G1 X128.065 Y180.217
G1 X128.932 Y180.926
G1 X129.752 Y181.677
G1 X130.524 Y182.468
G1 X131.246 Y183.295
G1 X131.917 Y184.155
G1 X132.535 Y185.046
G1 X133.098 Y185.964
G1 X133.606 Y186.905
G1 X134.057 Y187.867
G1 X134.452 Y188.846
G1 X134.789 Y189.839
G1 X135.068 Y190.842
G1 X135.290 Y191.852
G1 X135.453 Y192.866
G1 X135.559 Y193.881
G1 X135.608 Y194.893
G1 X135.600 Y195.899
G1 X135.536 Y196.895
G1 X135.418 Y197.880
G1 X135.246 Y198.849
G1 X135.022 Y199.801
G1 X134.746 Y200.731
G1 X134.422 Y201.639
G1 X134.050 Y202.520
G1 X133.633 Y203.372
G1 X133.171 Y204.194
G1 X132.669 Y204.982
G1 X132.127 Y205.736
G1 X131.548 Y206.452
G1 X130.935 Y207.129
G1 X130.290 Y207.766
G1 X129.615 Y208.362
G1 X128.914 Y208.914
G1 X128.188 Y209.421
G1 X127.441 Y209.884
G1 X126.676 Y210.300
G1 X125.895 Y210.670
G1 X125.100 Y210.993
G1 X124.296 Y211.268
G1 X123.484 Y211.496
G1 X122.668 Y211.676
G1 X121.849 Y211.808
G1 X121.032 Y211.894
G1 X120.218 Y211.933
G1 X119.410 Y211.926
G1 X118.611 Y211.874
G1 X117.823 Y211.778
G1 X117.048 Y211.639
G1 X116.290 Y211.458
G1 X115.550 Y211.237
G1 X114.830 Y210.976
G1 X114.132 Y210.678
G1 X113.459 Y210.344
G1 X112.812 Y209.976
G1 X112.193 Y209.576
G1 X111.603 Y209.145
G1 X111.044 Y208.686
G1 X110.516 Y208.201
G1 X110.023 Y207.692
G1 X109.563 Y207.161
G1 X109.139 Y206.610
G1 X108.751 Y206.042
G1 X108.399 Y205.458
G1 X108.085 Y204.862
G1 X107.807 Y204.255
G1 X107.568 Y203.640
G1 X107.366 Y203.019
G1 X107.202 Y202.394
G1 X107.075 Y201.767
G1 X106.985 Y201.141
G1 X106.932 Y200.518
G1 X106.915 Y199.900
G1 X106.933 Y199.289
G1 X106.986 Y198.688
G1 X107.072 Y198.097
G1 X107.190 Y197.518
G1 X107.340 Y196.955
G1 X107.520 Y196.407
G1 X107.729 Y195.877
G1 X107.965 Y195.367
G1 X108.228 Y194.877
G1 X108.514 Y194.409
G1 X108.823 Y193.965
G1 X109.153 Y193.544
G1 X109.503 Y193.149
G1 X109.870 Y192.779
G1 X110.253 Y192.436
G1 X110.650 Y192.121
G1 X111.059 Y191.833
G1 X111.478 Y191.574
G1 X111.906 Y191.343
G1 X112.341 Y191.140
G1 X112.780 Y190.966
G1 X113.222 Y190.820
G1 X113.666 Y190.703
G1 X114.109 Y190.614
G1 X114.550 Y190.552
G1 X114.987 Y190.517
G1 X115.418 Y190.508
G1 X115.843 Y190.525
G1 X116.258 Y190.567
G1 X116.664 Y190.633
G1 X117.059 Y190.721
G1 X117.441 Y190.832
G1 X117.809 Y190.963
G1 X118.162 Y191.114
G1 X118.499 Y191.284
G1 X118.819 Y191.470
G1 X119.122 Y191.672
G1 X119.406 Y191.889
G1 X119.671 Y192.118
G1 X119.917 Y192.359
G1 X120.142 Y192.610
G1 X120.347 Y192.870
G1 X120.532 Y193.137
G1 X120.695 Y193.409
G1 X120.838 Y193.686
G1 X120.960 Y193.965
G1 X121.061 Y194.246
G1 X121.142 Y194.526
G1 X121.203 Y194.805
G1 X121.244 Y195.081
G1 X121.266 Y195.353
G1 X121.270 Y195.620
G1 X121.256 Y195.880
G1 X121.224 Y196.132
G1 X121.176 Y196.376
G1 X121.113 Y196.609
G1 X121.035 Y196.832
G1 X120.944 Y197.043
G1 X120.840 Y197.242
G1 X120.725 Y197.428
G1 X120.600 Y197.600

; =====================================================
; Done
; =====================================================
G0 F4000 X0 Y0   ; return home
M2                         ; end program